**kern	**kern	**dynam
*part1	*part1	*part1
*staff2	*staff1	*
*I"Piano	*	*
*clefF4	*clefG2	*
*k[f#c#g#]	*k[f#c#g#]	*
=1	=1	=1
8r	8r	.
!	!LO:TX:b:i:t=dim.	!
(8GnL	(8ggnL	.
8E	8ee	.
8GGnJ)	8gnJ)	.
8r	8r	.
(8F#L	(8ff#L	.
8E	8ee	.
8FF#J)	8f#J)	.
=	=	=
8r	8r	pp
(8FnL	(8ffnL	.
8AA	8a	.
8FFnJ)	8fnJ)	.
8r	8r	.
(8EL	(8eeL	.
8AA	8a	.
8EEJ)	8eJ)	.
=	=	=
2r	2r	.
8r	8r	.
(8C#L	(8cc#L	.
8AA	8a	.
8CC#J)	8c#J)	.
=	=	=
2r	2r	.
8r	8r	ppp
(8AAL	(8aL	.
8EE	8e	.
8AAAJ)	8AJ)	.
=	=	=
2r	2r	.
8EEE 8EE	[2e [2cc# [2ee	.
8r	.	.
4r	.	.
=	=	=
8AAAA 8AAA	1e] 1cc#] 1ee]	.
8r	.	.
4r	.	.
2r	.	.
=	=	=
1r;	1c#; 1a 1cc#	.
==	==	==
*-	*-	*-
!!!system-decoration: {(s1,s2)}
